zondicons/svg/wallet.svg

<svg width="20px" height="20px" viewBox="0 0 20 20" version="1.1" xmlns="http://www.w3.org/2000/svg" xmlns:xlink="http://www.w3.org/1999/xlink"><title>wallet</title><desc>Created with Sketch.</desc><defs></defs><g id="Page-1" stroke="none" stroke-width="1" fill="none" fill-rule="evenodd"><g id="wallet" fill="#000000"><path d="M0,3.99406028 C0,2.8927712 0.892622799,2 1.99508929,2 L17.0066023,2 C17.5552407,2 18,2.44386482 18,3 L18,4 L2,4 L2,5 L19.0066023,5 C19.5552407,5 20,5.44748943 20,5.99850233 L20,15.9972399 C20,17.1033337 19.1017876,18 18.0092049,18 L1.99079514,18 C0.891309342,18 0,17.1054862 0,16.0059397 L0,3.99406028 Z M16.5,13 C17.3284271,13 18,12.3284271 18,11.5 C18,10.6715729 17.3284271,10 16.5,10 C15.6715729,10 15,10.6715729 15,11.5 C15,12.3284271 15.6715729,13 16.5,13 Z" id="Combined-Shape"></path></g></g></svg>

<svg xmlns="http://www.w3.org/2000/svg" viewBox="0 0 20 20"><path d="M0 4c0-1.1.9-2 2-2h15a1 1 0 0 1 1 1v1H2v1h17a1 1 0 0 1 1 1v10a2 2 0 0 1-2 2H2a2 2 0 0 1-2-2V4zm16.5 9a1.5 1.5 0 1 0 0-3 1.5 1.5 0 0 0 0 3z"/></svg>
